!!!COA:	Josquin des Prez
!!!CDT:	~1450-1521/08/27
!!!OTL@@LAT:	De profundis clamavi
!!!OTL2@@LAT:	A custodia
!!!AGN:	Motet
!!!SCT:	NJE 15.12
!!!SCA:	New Josquin Edition 15.12
!!!voices:	4
**kern	**kern	**kern	**kern
*staff4	*staff3	*staff2	*staff1
*Ivox	*Ivox	*Ivox	*Ivox
*I"Bassus	*I"Tenor	*I"Altus	*I"Superius
*I'B	*I'T	*I'A	*I'S
*clefF4	*clefGv2	*clefGv2	*clefG2
*>[A,B]	*>[A,B]	*>[A,B]	*>[A,B]
*>A	*>A	*>A	*>A
*k[]	*k[]	*k[]	*k[]
*M2/1	*M2/1	*M2/1	*M2/1
*met(C|)	*met(C|)	*met(C|)	*met(C|)
=1-	=1-	=1-	=1-
0r	0r	1.d	0r
.	.	2d\	.
=2	=2	=2	=2
0r	0r	1d	1r
.	.	1G	[1g
=3	=3	=3	=3
0r	0r	2.c\	2g/]
.	.	.	2g/
.	.	4B\	.
.	.	4c\	1g
.	.	4d\	.
.	.	[2e\	.
=4	=4	=4	=4
0r	0r	4e\]	1c
.	.	4d\	.
.	.	4c\	.
.	.	4B\	.
.	.	2A/	2.f/
.	.	[2d\	.
.	.	.	4e/
=5	=5	=5	=5
0r	0r	2d\]	4f/
.	.	.	4g/
.	.	2c\	2.a/
.	.	2.d\	.
.	.	.	4g/
.	.	.	4f/
.	.	4c\	4e/
=6	=6	=6	=6
0r	0r	2B\	2d/
.	.	2G/	1g
.	.	1A	.
.	.	.	2f#i/
=7	=7	=7	=7
1.G	0r	2G/	2g/
.	.	1B	1d
2G\	.	2B\	2d/
=8	=8	=8	=8
1G	1r	2B\	2d/
.	.	2B\	2d/
[1C	[1g	2.c\	2.e/
.	.	4d\	4d/
=9	=9	=9	=9
2C/]	2g\]	2e\	2c/
2C/	2g\	2.c\	2.e/
1C	1g	.	.
.	.	4B\	4d/
.	.	4c\	4e/
.	.	4d\	4f/
=10	=10	=10	=10
2C/	1c	2e\	2g/
2.F\	.	2f\	2.a/
.	1f	1c	.
4E\	.	.	4g/
4F\	.	.	4a/
4G\	.	.	4b\
=11	=11	=11	=11
2A\	2e\	2r	2cc\
2F\	2f\	2c\	2a/
2G\	2d\	2B\	2b\
2c\	2e\	2c\	4g/
.	.	.	4a/
=12	=12	=12	=12
2B\	2d\	2G/	4b\
.	.	.	4cc\
2G\	2B\	1g	2.dd\
1A	1c	.	.
.	.	.	4cc\
.	.	2f\	[2cc\
=13	=13	=13	=13
1G	1d	1g	2cc\]
.	.	.	2b\
1C	1c	[1e	[1cc
=14	=14	=14	=14
2r	2r	1e]	1cc]
2c\	2e\	.	.
2c\	2e\	1r	1r
2c\	2e\	.	.
=15	=15	=15	=15
1B	1d	0r	0r
1c	1e	.	.
=16	=16	=16	=16
1d	1f	0r	0r
2B\	2d\	.	.
[2c\	[2e\	.	.
=17	=17	=17	=17
4c\]	4e\]	2r	2r
4B\	4d\	.	.
4A\	2.g\	2c\	2cc\
4G\	.	.	.
1A	.	2c\	2cc\
.	4f#i\	.	.
.	4f#i\	2c\	2cc\
.	4e\	.	.
=18	=18	=18	=18
1G	1g	1d	1b
1r	1r	1e	1cc
=19	=19	=19	=19
0r	0r	1f	1dd
.	.	2d\	2b\
.	.	[2e\	[2cc\
=20	=20	=20	=20
1r	0r	4e\]	4cc\]
.	.	4d\	4b\
.	.	1g	4a/
.	.	.	4g/
2r	.	.	1a
2D\	.	2f#i\	.
=21	=21	=21	=21
1E	2r	1g	1g
.	2G/	.	.
1F	1A	1r	1r
=22	=22	=22	=22
1G	1B	0r	0r
1A	1c	.	.
=23	=23	=23	=23
1D	1d	0r	0r
2r	1G	.	.
[2d\	.	.	.
=24	=24	=24	=24
4d\]	2r	0r	0r
4c\	.	.	.
4B\	2.g\	.	.
4A\	.	.	.
2G\	.	.	.
.	4f\	.	.
[2A\	4e\	.	.
.	4d\	.	.
=25	=25	=25	=25
4A\]	1c	0r	0r
4B\	.	.	.
1c	.	.	.
.	1d	.	.
2B\	.	.	.
=26	=26	=26	=26
1c	0c	0e	0g
1C	.	.	.
=27	=27	=27	=27
1C	2r	1e	1g
.	2c\	.	.
1C	1c	1e	1g
=28	=28	=28	=28
1.F	1c	1.f	1.a
.	2c\	.	.
2F\	2c\	2f\	2a/
=29	=29	=29	=29
2F\	2c\	2f\	2a/
2F\	2c\	2f\	2a/
1F	2c\	1f	1a
.	2c\	.	.
=30	=30	=30	=30
2C/	1c	2.e\	2.g/
2.c\	.	.	.
.	.	4d\	4f/
.	1c	2e\	2g/
4B\	.	.	.
4A\	.	[2f\	[2a/
4G\	.	.	.
=31	=31	=31	=31
2F\	1r	4f\]	4a/]
.	.	4e\	4g/
2A\	.	4d\	1cc
.	.	4c\	.
1G	2r	1d	.
.	[2g\	.	2b\
=32	=32	=32	=32
2r	2g\]	1c	0cc
1c	2g\	.	.
.	2e\	1r	.
2c\	2e\	.	.
=33	=33	=33	=33
2A\	1f	0r	0r
2A\	.	.	.
1B	1d	.	.
=34	=34	=34	=34
1G	1.g	0r	0r
[1c	.	.	.
.	2f\	.	.
=35	=35	=35	=35
2c\]	2e\	0r	0r
2B\	2d\	.	.
2A\	1c	.	.
2G\	.	.	.
=36	=36	=36	=36
1F	1.d	0r	0r
[1G	.	.	.
.	2G/	.	.
=37	=37	=37	=37
2G\]	0G	2r	2r
2C/	.	1c	1e
[1C	.	.	.
.	.	2c\	2e/
=38	=38	=38	=38
1C]	0r	2c\	2e/
.	.	2c\	2e/
1r	.	1B	1g
=39	=39	=39	=39
0r	0r	2A/	1a
.	.	1f	.
.	.	.	2.cc\
.	.	2c\	.
.	.	.	4b\
=40	=40	=40	=40
0r	0r	2d\	2a/
.	.	2e\	2g/
.	.	2f\	2a/
.	.	[2e\	[2g/
=41	=41	=41	=41
1r	0r	2e\]	2g/]
.	.	2d\	2f/
2r	.	1e	[1e
[2c\	.	.	.
=42	=42	=42	=42
2c\]	1r	0r	1e]
2c\	.	.	.
2B\	2r	.	1r
2B\	[2g\	.	.
=43	=43	=43	=43
2c\	2g\]	0r	2r
2c\	2g\	.	1cc
1A	2f\	.	.
.	2f\	.	2cc\
=44	=44	=44	=44
1G	2g\	2r	2b\
.	2g\	1g	2b\
1C	1e	.	2cc\
.	.	2g\	2cc\
=45	=45	=45	=45
1D	1d	2f\	1a
.	.	2f\	.
2.E\	1r	2g\	1g
.	.	2g\	.
4F\	.	.	.
=46	=46	=46	=46
2G\	1r	1e	2r
2E\	.	.	2g/
2F\	2r	1d	2a/
2G\	2g\	.	2b\
=47	=47	=47	=47
1A	2e\	2r	2cc\
.	2f\	2c\	4b\
.	.	.	4a/
1G	1g	2d\	1b
.	.	2e\	.
=48	=48	=48	=48
2A\	1c	2f\	1a
2F\	.	4e\	.
.	.	4d\	.
2G\	2r	2e\	1r
2A\	2c\	2e\	.
=49	=49	=49	=49
2B-i\	2d\	2d\	0r
4A\	1f	1a	.
4G\	.	.	.
2F\	.	.	.
2G\	4e\	4g\	.
.	4d\	4f\	.
=50	=50	=50	=50
2A\	2c\	2e\	2r
2D\	1d	2f\	2a/
1A	.	1e	2a/
.	2c#i\	.	2a/
=51	=51	=51	=51
0D	2d\	2r	2.f/
.	2.f\	2d\	.
.	.	.	4g/
.	.	2.f\	2a/
.	4g\	.	.
.	2a\	.	[2d/
.	.	4g\	.
=52	=52	=52	=52
2r	2d\	2a\	4d/]
.	.	.	4e/
2.D\	2.a\	4d\	4f/
.	.	4e\	4g/
.	.	4f\	2.a/
4E\	4g\	4g\	.
4F\	2f\	[2a\	.
4G\	.	.	4b\
=53	=53	=53	=53
2.A\	2e\	2a\]	2cc\
.	2d\	2g\	1dd
4B-i\	.	.	.
1A	1e	1a	.
.	.	.	2cc#i\
=54	=54	=54	=54
1D	1d	1f	1dd
2r	2r	2r	2r
2G\	2d\	2g\	2b\
=55	=55	=55	=55
2D\	2d\	2f\	2a/
2G\	2d\	2g\	2b\
2A\	2c\	2e\	2cc\
2F\	2c\	2f\	2a/
=56	=56	=56	=56
1A	1c	2.e\	1cc
.	.	4f\	.
1G	1d	1g	1b
=57	=57	=57	=57
2r	2r	2r	2r
2G\	2d\	2g\	2b\
2D\	2d\	2f\	2a/
2G\	2d\	2g\	2b\
=58	=58	=58	=58
2A\	2c\	2e\	2cc\
2F\	2c\	2f\	2a/
2A\	2c\	2.e\	2.cc\
2A\	2c\	.	.
.	.	4f\	4cc\
=59	=59	=59	=59
[0G	[0d	0g	[0b
=60	=60	=60	=60
0G]	0d]	1r	0b]
.	.	2r	.
.	.	2g\	.
=61	=61	=61	=61
0r	0r	2g\	2r
.	.	2g\	2dd\
.	.	2f\	2dd\
.	.	2g\	2dd\
=62	=62	=62	=62
0r	0r	2a\	2cc\
.	.	1g	2dd\
.	.	.	2ee\
.	.	4f\	[2dd\
.	.	4e\	.
=63	=63	=63	=63
0r	0r	2d\	2dd\]
.	.	2e\	4cc\
.	.	.	4b\
.	.	2f\	2a/
.	.	2d\	2b\
=64	=64	=64	=64
0r	0r	2c\	2cc\
.	.	2d\	2a/
.	.	2e\	2g/
.	.	[2f\	[2a/
=65	=65	=65	=65
0r	0r	4f\]	4a/]
.	.	4e\	4g/
.	.	1e	4f/
.	.	.	4e/
.	.	.	1f
.	.	2d\	.
=66	=66	=66	=66
2r	1r	1e	0e
2c\	.	.	.
2c\	2r	1r	.
2c\	2g\	.	.
=67	=67	=67	=67
2B\	2g\	0r	0r
2c\	2g\	.	.
2d\	2f\	.	.
[2c\	2g\	.	.
=68	=68	=68	=68
2c\]	2a\	0r	0r
4B\	1g	.	.
4A\	.	.	.
1G	.	.	.
.	4f\	.	.
.	4e\	.	.
=69	=69	=69	=69
2G\	1d	0r	0r
2G\	.	.	.
2F\	2d\	.	.
2G\	2d\	.	.
=70	=70	=70	=70
2E\	2c\	0r	0r
4D\	2.d\	.	.
4E\	.	.	.
4F\	.	.	.
4G\	4B\	.	.
[2A\	[2c\	.	.
=71	=71	=71	=71
4A\]	4c\]	0r	1r
4G\	4B\	.	.
1G	4A/	.	.
.	4G/	.	.
.	1A	.	2r
2F#i\	.	.	2a/
=72	=72	=72	=72
1G	0G	1r	2b\
.	.	.	2cc\
1r	.	2r	1dd
.	.	2d\	.
=73	=73	=73	=73
0r	1r	2e\	2cc\
.	.	2f\	2a/
.	2r	1g	2b\
.	2G/	.	2cc\
=74	=74	=74	=74
1D	2A/	2f\	1dd
.	2B\	2d\	.
1A	2.c\	2e\	2cc\
.	.	2f\	2cc\
.	4d\	.	.
=75	=75	=75	=75
1G	2e\	1g	1b
.	2.d\	.	.
1d	.	2f\	1r
.	4e\	.	.
.	2f\	2f\	.
=76	=76	=76	=76
2c\	2g\	1e	2r
2A\	2.a\	.	2cc\
1B	.	2r	2dd\
.	8g\L	.	.
.	8f\J	.	.
.	2g\	2d\	2b\
=77	=77	=77	=77
1A	2c\	2e\	2cc\
.	2f\	2c\	2a/
1G	2e\	1g	1b
.	[2d\	.	.
=78	=78	=78	=78
2F\	4d\]	2r	1cc
.	4c\	.	.
2E\	1c	1G	.
1D	.	.	1dd
.	2B\	2F/	.
=79	=79	=79	=79
0C	2.c\	2G/	2.ee\
.	.	2.c\	.
.	4d\	.	4dd\
.	2e\	.	4cc\
.	.	4d\	4b\
.	[2A/	2e\	[2cc\
=80	=80	=80	=80
1F	4A/]	1A	2cc\]
.	4B\	.	.
.	4c\	.	4b\
.	4d\	.	4a/
1E	1e	2.B\	1g
.	.	4c\	.
=81	=81	=81	=81
2.D\	2r	4d\	2.f/
.	.	4e\	.
.	2A/	1d	.
4C/	.	.	4e/
4D\	2.A/	.	4f/
4E\	.	.	4g/
[2F\	.	4c\	[2a/
.	4G/	4B\	.
=82	=82	=82	=82
4F\]	2F/	4A/	2a/]
4E\	.	4G/	.
2C/	2E/	1c	2g/
1D	1F	.	2f/
.	.	2B\	4e/
.	.	.	4d/
=83	=83	=83	=83
[0Cl	1G	2c\	2e/
.	.	2.e\	2c/
.	2.c\	.	2.e/
.	.	4f\	.
.	.	[2g\	.
.	4d\	.	4f/
=84	=84	=84	=84
0C_	1.e	2g\]	1.g
.	.	2c\	.
.	.	2.e\	.
.	2c\	.	2e/
.	.	4f\	.
=85	=85	=85	=85
0C]	0cl	0gl	0el
!!LO:LB:i:g=z
=86||	=86||	=86||	=86||
*>B	*>B	*>B	*>B
!!section: A custodia
!!!OMD: Secunda pars: A custodia
*M2/1	*M2/1	*M2/1	*M2/1
*met(C|)	*met(C|)	*met(C|)	*met(C|)
*k[]	*k[]	*k[]	*k[]
0r	0r	1.G	0r
.	.	2G/	.
=87	=87	=87	=87
0r	0r	2A/	0r
.	.	2A/	.
.	.	1B	.
=88	=88	=88	=88
0r	0r	1c	1.g
.	.	2B\	.
.	.	[2c\	2g/
=89	=89	=89	=89
0r	0r	2c\]	2a/
.	.	4B\	2a/
.	.	4A/	.
.	.	1G	1b
=90	=90	=90	=90
0r	0r	1A	1cc
.	.	2G/	2b\
.	.	2E/	[2cc\
=91	=91	=91	=91
0r	0r	1F	2cc\]
.	.	.	4b\
.	.	.	4a/
.	.	1E	1g
=92	=92	=92	=92
0r	0r	2r	1a
.	.	2A/	.
.	.	2B\	2g/
.	.	2c\	2e/
=93	=93	=93	=93
0r	0r	1d	1f
.	.	1c	1e
=94	=94	=94	=94
0r	0r	1f	2r
.	.	.	2a/
.	.	2e\	2b\
.	.	2e\	2cc\
=95	=95	=95	=95
0r	0r	1d	1dd
.	.	2r	1cc
.	.	[2a\	.
=96	=96	=96	=96
0r	0r	2a\]	1ff
.	.	2f\	.
.	.	2g\	2ee\
.	.	2a\	2ee\
=97	=97	=97	=97
0r	0r	2f\	2.dd\
.	.	2.g\	.
.	.	.	4cc\
.	.	.	2dd\
.	.	4f\	.
.	.	4e\	[2ee\
.	.	4d\	.
=98	=98	=98	=98
0r	1r	1c	4ee\]
.	.	.	4dd\
.	.	.	2.cc\
.	1G	1d	.
.	.	.	4b\
.	.	.	2b\
=99	=99	=99	=99
1r	1A	1c	0cc
1C	1c	1r	.
=100	=100	=100	=100
1D	1B	0r	0r
1F	2A/	.	.
.	[2d\	.	.
=101	=101	=101	=101
1E	2d\]	0r	0r
.	2c\	.	.
2D\	2.B\	.	.
[2G\	.	.	.
.	8A/L	.	.
.	8G/J	.	.
=102	=102	=102	=102
2G\]	1A	0r	0r
2F\	.	.	.
2.E\	2G/	.	.
.	[2g\	.	.
8D/L	.	.	.
8C/J	.	.	.
=103	=103	=103	=103
1D	2g\]	0r	0r
.	2f\	.	.
2C/	2.e\	.	.
[2c\	.	.	.
.	8d\L	.	.
.	8c\J	.	.
=104	=104	=104	=104
2c\]	1d	0r	0r
2B\	.	.	.
2.A\	1c	.	.
8G\L	.	.	.
8F\J	.	.	.
=105	=105	=105	=105
1G	2r	0r	0r
.	1d	.	.
1F	.	.	.
.	2c\	.	.
=106	=106	=106	=106
2r	2.B\	0r	0r
1G	.	.	.
.	8A/L	.	.
.	8G/J	.	.
.	1A	.	.
2F\	.	.	.
=107	=107	=107	=107
2.E\	2G/	0r	0r
.	1g	.	.
8D/L	.	.	.
8C/J	.	.	.
1D	.	.	.
.	2f\	.	.
=108	=108	=108	=108
2C/	2.e\	0r	0r
1c	.	.	.
.	8d\L	.	.
.	8c\J	.	.
.	1d	.	.
2B\	.	.	.
=109	=109	=109	=109
2.A\	1c	0r	0r
8G\L	.	.	.
8F\J	.	.	.
1G	2r	.	.
.	[2d\	.	.
=110	=110	=110	=110
1F	2d\]	0r	0r
.	2c\	.	.
2r	2.B\	.	.
[2G\	.	.	.
.	8A/L	.	.
.	8G/J	.	.
=111	=111	=111	=111
2G\]	1A	0r	0r
2F\	.	.	.
2.E\	2G/	.	.
.	[2c\	.	.
8D/L	.	.	.
8C/J	.	.	.
=112	=112	=112	=112
1D	2c\]	0r	0r
.	2B\	.	.
1C	[1c	.	.
=113	=113	=113	=113
1r	1c]	1e	1g
1C	1r	1e	1g
=114	=114	=114	=114
1C	1c	2e\	2g/
.	.	2e\	2g/
2C/	1c	2e\	2g/
2C/	.	2e\	2g/
=115	=115	=115	=115
2C/	2c\	0e	0g
2C/	2c\	.	.
1C	2c\	.	.
.	2c\	.	.
=116	=116	=116	=116
1F	1c	2.f\	1a
.	.	4e\	.
1G	2B\	2d\	1b
.	2d\	2g\	.
=117	=117	=117	=117
2.A\	2c\	2e\	2.cc\
.	2A/	1a	.
4G\	.	.	4b\
4A\	2.e\	.	4cc\
4B\	.	.	4dd\
[2c\	.	4g\	[2ee\
.	4d\	4f\	.
=118	=118	=118	=118
4c\]	2c\	4e\	2ee\]
4B\	.	4d\	.
2G\	2B\	1g	2dd\
1A	1c	.	2cc\
.	.	2f#i\	4b\
.	.	.	4a/
=119	=119	=119	=119
[0G	0d	[0g	1b
.	.	.	2r
.	.	.	2b\
=120	=120	=120	=120
0G_	2r	0g_	2b\
.	2B\	.	2b\
.	2B\	.	1dd
.	2B\	.	.
=121	=121	=121	=121
0G]	1d	0g]	1b
.	1B	.	2.dd\
.	.	.	4cc\
=122	=122	=122	=122
0r	2.d\	0r	2b\
.	.	.	2a/
.	4c\	.	.
.	2B\	.	2g/
.	2A/	.	2cc\
=123	=123	=123	=123
0r	2G/	1r	2b\
.	2c\	.	2.a/
.	1B	1d	.
.	.	.	4g#i/
.	.	.	4g#i/
.	.	.	8f#i/L
.	.	.	8g#i/J
=124	=124	=124	=124
1r	0A	1e	0a
1D	.	1f	.
=125	=125	=125	=125
1E	0r	2.g\	0r
.	.	4f\	.
1F	.	2d\	.
.	.	2f\	.
=126	=126	=126	=126
2.G\	1r	2e\	0r
.	.	2d\	.
4F\	.	.	.
2D\	1d	1f	.
2F\	.	.	.
=127	=127	=127	=127
2E\	2e\	2g\	0r
2D\	2.f\	2.a\	.
1F	.	.	.
.	4e\	4g\	.
.	4d\	2f\	.
.	4c\	.	.
=128	=128	=128	=128
2G\	2B\	2e\	2r
2.A\	2.c\	2.f\	2a/
.	.	.	2cc\
4G\	4B\	4e\	.
2F\	[2A/	[2d\	2dd\
=129	=129	=129	=129
1E	2A/]	2d\]	1ee
.	2G/	2c#i\	.
[1D	[1A	[1d	1ff
=130	=130	=130	=130
1D]	1A]	1d]	1ff
[1C	[1c	1G	[1ee
=131	=131	=131	=131
1C]	0c]	2r	2ee\]
.	.	2g\	2ee\
1C	.	2g\	1ee
.	.	2g\	.
=132	=132	=132	=132
1G	1B	2g\	2r
.	.	2g\	2.dd\
[1G	4G/	[1g	.
.	4A/	.	4cc\
.	4B\	.	4b\
.	4c\	.	4a/
=133	=133	=133	=133
2G\]	2d\	1g]	2b\
2G\	2e\	.	4g/
.	.	.	4a/
1G	2d\	2r	4b\
.	.	.	4cc\
.	2B\	[2g\	[2dd\
=134	=134	=134	=134
1A	1c	2g\]	4dd\]
.	.	.	4cc\
.	.	2f\	1cc
1G	1d	1g	.
.	.	.	2b\
=135	=135	=135	=135
[0C	1c	[0e	[0cc
.	2r	.	.
.	2c\	.	.
=136	=136	=136	=136
1C]	2c\	1e]	1cc]
.	2c\	.	.
2r	1c	2r	2r
2C/	.	2e\	2g/
=137	=137	=137	=137
2.F\	2r	2.f\	2.a/
.	2c\	.	.
4E\	.	4g\	4g/
2F\	2c\	2a\	2f/
2C/	2c\	2g\	2e/
=138	=138	=138	=138
2.F\	2c\	2.a\	2.f/
.	2c\	.	.
4E\	.	4g\	4g/
2F\	[1c	2f\	2a/
2C/	.	2e\	2g/
=139	=139	=139	=139
2F\	2c\]	2f\	2a/
2G\	2B\	2e\	2.g/
1D	1A	1d	.
.	.	.	4f#i/
.	.	.	4f#i/
.	.	.	8e/L
.	.	.	8f#i/J
=140	=140	=140	=140
2E\	1G	2r	1g
2.G\	.	2d\	.
.	1r	2e\	1r
4F\	.	.	.
2D\	.	2f\	.
=141	=141	=141	=141
1E	2r	1g	0r
.	2G/	.	.
1D	2A/	1f	.
.	2B\	.	.
=142	=142	=142	=142
2r	1c	2e\	0r
2C/	.	1a	.
2D\	1B	.	.
2E\	.	2g\	.
=143	=143	=143	=143
1F	2A/	1a	0r
.	1d	.	.
1E	.	1g	.
.	2c\	.	.
=144	=144	=144	=144
2D\	2d\	2f\	0r
1G	2.B\	2e\	.
.	.	[1d	.
.	4G/	.	.
2F\	2A/	.	.
=145	=145	=145	=145
2G\	2B\	2d\]	0r
2E\	1c	2e\	.
1D	.	1f	.
.	2B\	.	.
=146	=146	=146	=146
1C	2.c\	0e	2r
.	.	.	2g/
.	4B\	.	.
1r	2A/	.	2a/
.	2G/	.	2b\
=147	=147	=147	=147
0r	1A	2r	1cc
.	.	2c\	.
.	1G	2d\	1b
.	.	2e\	.
=148	=148	=148	=148
0r	1d	1f	2a/
.	.	.	1dd
.	1A	1e	.
.	.	.	2cc\
=149	=149	=149	=149
2r	2.B\	2d\	2.dd\
2G\	.	1g	.
.	4A/	.	4cc\
2G\	4B\	.	2b\
.	4c\	.	.
2D\	[2d\	2f\	2a/
=150	=150	=150	=150
2G\	4d\]	2.g\	2b\
.	4c\	.	.
2G\	4B\	.	4g/
.	4A/	4f\	4a/
1G	2G/	2e\	4b\
.	.	.	4cc\
.	[2g\	2d\	2dd\
=151	=151	=151	=151
2C/	4g\]	2e\	2cc\
.	4f\	.	.
2.c\	4e\	4c\	1ee
.	4d\	4d\	.
.	2c\	4e\	.
4B\	.	4f\	.
2G\	2B\	[2g\	2dd\
=152	=152	=152	=152
1A	1c	2g\]	2.cc\
.	.	2f#i\	.
.	.	.	8b/L
.	.	.	8a/J
1G	1d	[1g	[1b
=153	=153	=153	=153
2r	1G	0g]	1b]
2G\	.	.	.
2G\	1r	.	2r
2G\	.	.	2g/
=154	=154	=154	=154
1c	0r	0e	2g/
.	.	.	2g/
2r	.	.	1cc
[2c\	.	.	.
=155	=155	=155	=155
4c\]	0r	0r	2r
4B\	.	.	.
2A\	.	.	2.cc\
2G\	.	.	.
.	.	.	4b\
[2c\	.	.	2a/
=156	=156	=156	=156
4c\]	0r	0r	2g/
4B\	.	.	.
2A\	.	.	2.cc\
2G\	.	.	.
.	.	.	4b\
2F\	.	.	2a/
=157	=157	=157	=157
2E\	0r	0r	2g/
2.A\	.	.	2f/
.	.	.	2e/
4G\	.	.	.
2F\	.	.	[2a/
=158	=158	=158	=158
2E\	0r	0r	4a/]
.	.	.	4g/
2.A\	.	.	2f/
.	.	.	2e/
4G\	.	.	.
2F\	.	.	[2a/
=159	=159	=159	=159
2E\	0r	0r	4a/]
.	.	.	4g/
2D\	.	.	2f/
2C/	.	.	2e/
2G\	.	.	2d/
=160	=160	=160	=160
4A\	0r	0r	1c
4G\	.	.	.
1c	.	.	.
.	.	.	1d
2B\	.	.	.
=161	=161	=161	=161
1c	1g	0r	0c
1r	2a\	.	.
.	[2g\	.	.
=162	=162	=162	=162
1G	2g\]	0r	0r
.	2e\	.	.
2A\	2f\	.	.
[2G\	2g\	.	.
=163	=163	=163	=163
2G\]	1e	1g	0r
2E\	.	.	.
2F\	1r	2a\	.
2G\	.	[2g\	.
=164	=164	=164	=164
1E	0r	2g\]	1g
.	.	2e\	.
1r	.	2f\	2a/
.	.	2g\	[2g/
=165	=165	=165	=165
1c	1r	1e	2g/]
.	.	.	2e/
2d\	2r	1r	2f/
[2c\	[2e\	.	2g/
=166	=166	=166	=166
2c\]	2e\]	1r	1e
2A\	2c\	.	.
2B\	2d\	2r	2r
2c\	2e\	2c\	[2cc\
=167	=167	=167	=167
1A	1c	2e\	2cc\]
.	.	2f\	2a/
2r	2r	2g\	2b\
[2A\	[2c\	2e\	2cc\
=168	=168	=168	=168
2A\]	2c\]	2f\	2a/
2F\	2A/	2a\	2cc\
2G\	2B\	2g\	2b\
2A\	2c\	[2f\	[2a/
=169	=169	=169	=169
2F\	2d\	4f\]	4a/]
.	.	4e\	4g/
2G\	2B\	4d\	1g
.	.	4c\	.
1D	1A	2.d\	.
.	.	.	2f#i/
.	.	4c\	.
=170	=170	=170	=170
0G	2G/	2B\	4g/
.	.	.	4a/
.	2.g\	2G/	4b\
.	.	.	4cc\
.	.	2.g\	2dd\
.	4f\	.	.
.	4e\	.	[2ee\
.	4d\	4f\	.
=171	=171	=171	=171
1A	1c	2e\	4ee\]
.	.	.	4dd\
.	.	2.a\	2.ff\
1F	1A	.	.
.	.	4g\	4ee\
.	.	4f\	4dd\
.	.	4e\	4cc\
=172	=172	=172	=172
0G	0B	1d	4b\
.	.	.	4g/
.	.	.	2.gg\
.	.	1g	.
.	.	.	4ff\
.	.	.	[2ee\
=173	=173	=173	=173
0A	0c	1e	4ee\]
.	.	.	4dd\
.	.	.	1cc
.	.	1f	.
.	.	.	4b\
.	.	.	4a/
=174	=174	=174	=174
0Gl	0dl	0gl	0bl
==	==	==	==
*-	*-	*-	*-
!!!RDF**kern: l=long note in original notation
!!!RDF**kern: i=editorial accidental
!!!ENC:	Will Watson 15/12/2011
!!!END:	2011/12/15/ 
!!!EED:	Jesse Rodin
!!!EEV:	2012/01/24/
!!attribution-level: 3 (other)
!!!ONB:	Translated from MusicXML and edited on 2011/01/24/ by Craig Sapp
!!muse2ps: C^@{COA}\n@{SCT}^u^(2) @{OTL2}^i2I100v90,90,90,90,120Q16
